metamac-portal-web-client/icons/map-center.svg

<?xml version="1.0" encoding="UTF-8" standalone="no"?>
<!-- Generator: Adobe Illustrator 15.0.0, SVG Export Plug-In . SVG Version: 6.00 Build 0)  -->

<svg
   xmlns:dc="http://purl.org/dc/elements/1.1/"
   xmlns:cc="http://creativecommons.org/ns#"
   xmlns:rdf="http://www.w3.org/1999/02/22-rdf-syntax-ns#"
   xmlns:svg="http://www.w3.org/2000/svg"
   xmlns="http://www.w3.org/2000/svg"
   xmlns:xlink="http://www.w3.org/1999/xlink"
   xmlns:sodipodi="http://sodipodi.sourceforge.net/DTD/sodipodi-0.dtd"
   xmlns:inkscape="http://www.inkscape.org/namespaces/inkscape"
   version="1.1"
   id="Layer_1"
   x="0px"
   y="0px"
   width="48px"
   height="48px"
   viewBox="0 0 48 48"
   enable-background="new 0 0 48 48"
   xml:space="preserve"
   inkscape:version="0.48.2 r9819"
   sodipodi:docname="map-center.svg"><metadata
   id="metadata25"><rdf:RDF><cc:Work
       rdf:about=""><dc:format>image/svg+xml</dc:format><dc:type
         rdf:resource="http://purl.org/dc/dcmitype/StillImage" /></cc:Work></rdf:RDF></metadata><defs
   id="defs23">
	

		
		
	</defs><sodipodi:namedview
   pagecolor="#ffffff"
   bordercolor="#666666"
   borderopacity="1"
   objecttolerance="10"
   gridtolerance="10"
   guidetolerance="10"
   inkscape:pageopacity="0"
   inkscape:pageshadow="2"
   inkscape:window-width="1920"
   inkscape:window-height="1018"
   id="namedview21"
   showgrid="false"
   inkscape:zoom="4.9166667"
   inkscape:cx="14.880204"
   inkscape:cy="24"
   inkscape:window-x="-8"
   inkscape:window-y="-8"
   inkscape:window-maximized="1"
   inkscape:current-layer="Layer_1" />
<path
   d="M 23.96875 0 C 10.75675 0 0 10.75575 0 23.96875 C 0 37.18175 10.75675 47.9375 23.96875 47.9375 C 37.18175 47.9375 47.9375 37.18175 47.9375 23.96875 C 47.9375 10.75575 37.18175 0 23.96875 0 z M 22.8125 5.84375 L 22.8125 17.40625 L 24.71875 17.40625 L 24.71875 5.84375 C 34.38175 6.33275 41.5725 13.5235 42.0625 23.1875 L 30.53125 23.1875 L 30.53125 25.125 L 42.0625 25.09375 C 41.5745 34.75575 34.38275 41.5735 24.71875 42.0625 L 24.71875 30.9375 L 22.8125 30.9375 L 22.8125 42.0625 C 13.1495 41.5735 6.33275 34.788 5.84375 25.125 L 17 25.125 L 17 23.1875 L 5.84375 23.1875 C 6.33275 13.5235 13.1495 6.33275 22.8125 5.84375 z "
   id="path3332" /><g
   id="g9"
   style="opacity:0.5">
			<g
   id="g11">
				<defs
   id="defs13">
					<rect
   id="SVGID_1_"
   x="22.798"
   y="23.190001"
   width="1.932"
   height="1.933" />
				</defs>
				<clipPath
   id="SVGID_2_">
					<use
   xlink:href="#SVGID_1_"
   overflow="visible"
   id="use17"
   style="overflow:visible"
   x="0"
   y="0"
   width="48"
   height="48" />
				</clipPath>
				<path
   clip-path="url(#SVGID_2_)"
   d="m 22.798,23.190001 1.932,0 0,1.933 -1.932,0 z"
   id="rect19"
   inkscape:connector-curvature="0" />
			</g>
		</g>
</svg>

<?xml version="1.0" encoding="utf-8"?>
<!-- Generator: Adobe Illustrator 15.0.0, SVG Export Plug-In . SVG Version: 6.00 Build 0)  -->
<!DOCTYPE svg PUBLIC "-//W3C//DTD SVG 1.1//EN" "http://www.w3.org/Graphics/SVG/1.1/DTD/svg11.dtd">
<svg version="1.1" id="Layer_1" xmlns="http://www.w3.org/2000/svg" xmlns:xlink="http://www.w3.org/1999/xlink" x="0px" y="0px"
	 width="48px" height="48px" viewBox="0 0 48 48" enable-background="new 0 0 48 48" xml:space="preserve">
<g>
	<g>
		<path d="M23.961,0C10.749,0,0,10.747,0,23.96s10.749,23.962,23.961,23.962c13.213,0,23.961-10.749,23.961-23.962
			S37.174,0,23.961,0 M24.73,42.074V30.922h-1.932v11.152c-9.663-0.489-16.464-7.287-16.953-16.95H17v-1.932H5.846
			c0.489-9.664,7.29-16.857,16.953-17.346v11.547h1.932V5.846c9.663,0.489,16.855,7.682,17.345,17.346H30.528v1.932l11.535-0.031
			C41.575,34.755,34.394,41.585,24.73,42.074"/>
		<g opacity="0.5">
			<g>
				<defs>
					<rect id="SVGID_1_" x="22.798" y="23.19" width="1.932" height="1.933"/>
				</defs>
				<clipPath id="SVGID_2_">
					<use xlink:href="#SVGID_1_"  overflow="visible"/>
				</clipPath>
				<rect x="22.798" y="23.19" clip-path="url(#SVGID_2_)" width="1.932" height="1.933"/>
			</g>
		</g>
	</g>
</g>
</svg>
